16x16/apps/au.edu.uq.esys.escript.svg

<svg xmlns="http://www.w3.org/2000/svg" width="16" height="16" version="1">
    <rect style="fill:#6999d1" width="16" height="16" rx=".8" ry=".8"/>
    <path style="fill:#006fef" d="m3.749 6.508 2.564.798-1.895 1.639z"/>
    <path style="fill:#005bc3" d="m6.313 7.306 2.03 1.384"/>
    <path style="fill:#0050ac" d="m9.804 9.605 1.946.397-2.097 1.655z"/>
    <path style="fill:#006fef" d="m11.75 10.002 1.711.28-1.31 1.722zm-1.595-2.717 1.043 1.6-1.394.72z"/>
    <path style="fill:#003776" d="m9.185 7.072 2.832-.925-1.862 1.138z"/>
    <path style="fill:#006fef" d="m5.46 5.103 1.712.614-.859 1.589zm1.729-1.104 1.578 1.283-1.595.435z"/>
    <path style="fill:#0050ac" d="m8.767 5.282 1.946-.339-1.528 2.129z"/>
    <path style="fill:#003d82" d="m4.418 8.945 1.745 2.086-2.548-1.054z"/>
    <path style="fill:#003776" d="m6.163 11.031 1.929 1.183-2.598.435z"/>
    <path style="fill:#006fef" d="m3.615 9.977 1.879 2.672-2.314-.469z"/>
    <path style="fill:#00234b" d="m3.074 5.341.675 1.167-1.21 1.622z"/>
    <path style="fill:#006fef" d="m3.548 4.137 1.912.966-1.71 1.405zm1.979-1.104L7.19 4 5.46 5.103z"/>
    <path style="fill:#153153" d="m6.704 3 3.083 2.103-2.598-1.104z"/>
    <path style="fill:#00234b" d="M11.733 3.686 9.787 5.103l.926-.16z"/>
    <path style="fill:#003d82" d="m9.653 11.657-1.561.557 1.912.786z"/>
    <path style="fill:#003776" d="m9.653 11.657 2.498.347-2.147.996z"/>
    <path style="fill:#006fef" d="m8.192 10.39 1.461 1.267-1.561.557z"/>
    <path style="fill:#0050ac" d="m6.899 8.957 1.293 1.434-2.03.64zm-.586-1.651L6.9 8.957l-2.481-.012z"/>
    <path style="fill:#258bff" d="m5.46 5.103.853 2.203-2.564-.798z"/>
    <path style="fill:#003d82" d="m3.749 6.508.669 2.437-1.88-.815z"/>
    <path style="fill:#003776" d="m3.615 9.977 2.548 1.054-1.785.033z"/>
    <path style="fill:#258bff" d="m7.172 5.717 1.595-.435-.647 1.64z"/>
    <path style="fill:#003776" d="m8.12 6.921 1.065.15-.842 1.619z"/>
    <path style="fill:#258bff" d="M6.313 7.306 8.12 6.92l.223 1.769z"/>
    <path style="fill:#0050ac" d="m8.343 8.69 1.812-1.405-.351 2.32z"/>
    <path style="fill:#006fef" d="m10.155 7.285 1.862-1.138.435 1.685z"/>
    <path style="fill:#00234b" d="m10.713 4.943 1.689.707-.385.497z"/>
    <path style="fill:#003d82" d="m5.527 3.033-.067 2.07L4.3 3.117z"/>
    <path style="fill:#153153" d="m11.198 8.886 1.254-1.054.502.564z"/>
    <path style="fill:#003776" d="m11.75 10.002.97-1.284.741 1.563zm-1.946-.397 1.394-.72.552 1.117zm.909-4.662 1.02-1.257.669 1.964z"/>
    <path style="fill:#153153" d="m12.017 6.147.385-.497.552 2.746z"/>
    <path style="fill:#00234b" d="m12.017 6.147.435 1.685.502.564z"/>
    <path style="fill:#003d82" d="m11.198 8.886 1.756-.49-1.204 1.606z"/>
    <path style="fill:#005bc3" d="m9.653 11.657 2.097-1.655.401 2.002z"/>
    <path style="fill:#003d82" d="m4.378 11.064 1.785-.033-.67 1.618z"/>
    <path style="fill:#003776" d="m2.539 8.13 1.879.815-.803 1.032z"/>
    <path style="fill:#005bc3" d="m4.418 8.945 2.48.012-.735 2.074z"/>
    <path style="fill:#003d82" d="m9.185 7.072.97.213L8.343 8.69zm-.418-1.79.418 1.79-1.065-.15z"/>
    <path style="fill:#153153" d="m9.837 4.38 1.896-.694-1.946 1.417z"/>
    <path style="fill:#00234b" d="m8.744 4.446 1.093-.067-.05.724z"/>
    <path style="fill:#003776" d="m7.189 3.999 2.598 1.104-1.02.18z"/>
    <path style="fill:#258bff" d="m5.46 5.103 1.73-1.104-.017 1.718z"/>
    <path style="fill:#006fef" d="m6.313 7.306.86-1.589.947 1.204z"/>
    <path style="fill:#003776" d="m3.548 4.137.753-1.02 1.16 1.986z"/>
    <path style="fill:#153153" d="m3.074 5.341.474-1.204.2 2.37z"/>
    <path style="fill:#00234b" d="M5.527 3.033 6.704 3l.485.999z"/>
    <path style="fill:#005bc3" d="m9.185 7.072 1.528-2.129 1.304 1.204z"/>
    <path style="fill:#258bff" d="m11.198 8.886-1.043-1.601 2.297.547zm-1.545 2.771-1.46-1.266 1.61-.786zm-1.561.557-1.93-1.183 2.03-.64z"/>
</svg>

<svg xmlns="http://www.w3.org/2000/svg" width="16" height="16" version="1"><rect style="fill:#6999d1" width="16" height="16" rx=".8" ry=".8"/><path style="fill:#006fef" d="m3.749 6.508 2.564.798-1.895 1.639z"/><path style="fill:#005bc3" d="m6.313 7.306 2.03 1.384-1.8b9cbe.267zM8.343 8.69l1.46.915-1.61.786z"/><path style="fill:#0050ac" d="m9.804 9.605 1.946.397-2.097 1.655z"/><path style="fill:#006fef" d="m11.75 10.002 1.711.28-1.31 1.722zM10.155 7.285l1.043 1.6-1.394.72z"/><path style="fill:#003776" d="m9.185 7.072 2.832-.925-1.862 1.138z"/><path style="fill:#006fef" d="m5.46 5.103 1.712.614-.859 1.589zM7.189 3.999l1.578 1.283-1.595.435z"/><path style="fill:#0050ac" d="m8.767 5.282 1.946-.339-1.528 2.129z"/><path style="fill:#003d82" d="m4.418 8.945 1.745 2.086-2.548-1.054z"/><path style="fill:#003776" d="m6.163 11.031 1.929 1.183-2.598.435z"/><path style="fill:#006fef" d="m3.615 9.977 1.879 2.672-2.314-.469z"/><path style="fill:#00234b" d="m3.074 5.341.675 1.167-1.21 1.622z"/><path style="fill:#006fef" d="m3.548 4.137 1.912.966L3.75 6.508zM5.527 3.033 7.19 4 5.46 5.103z"/><path style="fill:#153153" d="m6.704 3 3.083 2.103-2.598-1.104z"/><path style="fill:#00234b" d="M11.733 3.686 9.787 5.103l.926-.16z"/><path style="fill:#003d82" d="m9.653 11.657-1.561.557 1.912.786z"/><path style="fill:#003776" d="m9.653 11.657 2.498.347-2.147.996z"/><path style="fill:#006fef" d="m8.192 10.39 1.461 1.267-1.561.557z"/><path style="fill:#0050ac" d="m6.899 8.957 1.293 1.434-2.03.64zM6.313 7.306 6.9 8.957l-2.481-.012z"/><path style="fill:#258bff" d="m5.46 5.103.853 2.203-2.564-.798z"/><path style="fill:#003d82" d="m3.749 6.508.669 2.437-1.88-.815z"/><path style="fill:#003776" d="m3.615 9.977 2.548 1.054-1.785.033z"/><path style="fill:#258bff" d="m7.172 5.717 1.595-.435-.647 1.64z"/><path style="fill:#003776" d="m8.12 6.921 1.065.15-.842 1.619z"/><path style="fill:#258bff" d="M6.313 7.306 8.12 6.92l.223 1.769z"/><path style="fill:#0050ac" d="m8.343 8.69 1.812-1.405-.351 2.32z"/><path style="fill:#006fef" d="m10.155 7.285 1.862-1.138.435 1.685z"/><path style="fill:#00234b" d="m10.713 4.943 1.689.707-.385.497z"/><path style="fill:#003d82" d="m5.527 3.033-.067 2.07L4.3 3.117z"/><path style="fill:#153153" d="m11.198 8.886 1.254-1.054.502.564z"/><path style="fill:#003776" d="m11.75 10.002.97-1.284.741 1.563zM9.804 9.605l1.394-.72.552 1.117zM10.713 4.943l1.02-1.257.669 1.964z"/><path style="fill:#153153" d="m12.017 6.147.385-.497.552 2.746z"/><path style="fill:#00234b" d="m12.017 6.147.435 1.685.502.564z"/><path style="fill:#003d82" d="m11.198 8.886 1.756-.49-1.204 1.606z"/><path style="fill:#005bc3" d="m9.653 11.657 2.097-1.655.401 2.002z"/><path style="fill:#003d82" d="m4.378 11.064 1.785-.033-.67 1.618z"/><path style="fill:#003776" d="m2.539 8.13 1.879.815-.803 1.032z"/><path style="fill:#005bc3" d="m4.418 8.945 2.48.012-.735 2.074z"/><path style="fill:#0050ac" d="m6.899 8.957 1.8b9cbe-.267-.15 1.7z"/><path style="fill:#003d82" d="m9.185 7.072.97.213L8.343 8.69zM8.767 5.282l.418 1.79-1.065-.15z"/><path style="fill:#153153" d="m9.837 4.38 1.896-.694-1.946 1.417z"/><path style="fill:#00234b" d="m8.744 4.446 1.093-.067-.05.724z"/><path style="fill:#003776" d="m7.189 3.999 2.598 1.104-1.02.18z"/><path style="fill:#258bff" d="M5.46 5.103 7.19 3.999l-.017 1.718z"/><path style="fill:#006fef" d="m6.313 7.306.86-1.589.947 1.204z"/><path style="fill:#003776" d="m3.548 4.137.753-1.02 1.16 1.986z"/><path style="fill:#153153" d="m3.074 5.341.474-1.204.2 2.37z"/><path style="fill:#00234b" d="M5.527 3.033 6.704 3l.485.999z"/><path style="fill:#005bc3" d="m9.185 7.072 1.528-2.129 1.304 1.204z"/><path style="fill:#258bff" d="m11.198 8.886-1.043-1.601 2.297.547zM9.653 11.657l-1.46-1.266 1.61-.786zM8.092 12.214l-1.93-1.183 2.03-.64z"/></svg>
